packages/sources/icons/src/vitamix/suitcase-fill.svg

<svg width="16" height="16" viewBox="0 0 16 16" xmlns="http://www.w3.org/2000/svg"><path d="M10 2C10.368 2 10.6667 2.29867 10.6667 2.66667V4H14C14.368 4 14.6667 4.29867 14.6667 4.66667V13.3333C14.6667 13.7013 14.368 14 14 14H2.00004C1.63204 14 1.33337 13.7013 1.33337 13.3333V4.66667C1.33337 4.29867 1.63204 4 2.00004 4H5.33337V2.66667C5.33337 2.29867 5.63204 2 6.00004 2H10ZM5.33337 5.33333H4.00004V12.6667H5.33337V5.33333ZM12 5.33333H10.6667V12.6667H12V5.33333ZM9.33337 3.33333H6.66671V4H9.33337V3.33333Z"/></svg>

<svg width="16" height="16" xmlns="http://www.w3.org/2000/svg"><path d="M10 2c.368 0 .667.299.667.667V4H14c.368 0 .667.299.667.667v8.666A.667.667 0 0 1 14 14H2a.667.667 0 0 1-.667-.667V4.667C1.333 4.299 1.632 4 2 4h3.333V2.667C5.333 2.299 5.632 2 6 2h4ZM5.333 5.333H4v7.334h1.333V5.333Zm6.667 0h-1.333v7.334H12V5.333Zm-2.667-2H6.667V4h2.666v-.667Z"/></svg>
